polaris-icons/icons/new-icons/TransferWithinShopifyMajor.svg

<svg width="20" height="20" viewBox="0 0 20 20" fill="none" xmlns="http://www.w3.org/2000/svg">
<path fill-rule="evenodd" clip-rule="evenodd" d="M6.25 3.5C4.73122 3.5 3.5 4.73122 3.5 6.25V13.75C3.5 15.2688 4.73122 16.5 6.25 16.5H13.75C15.2688 16.5 16.5 15.2688 16.5 13.75V6.25C16.5 4.73122 15.2688 3.5 13.75 3.5H6.25ZM5 10.5L11.4393 10.5L10.2197 11.7197C9.92678 12.0126 9.92678 12.4874 10.2197 12.7803C10.5126 13.0732 10.9874 13.0732 11.2803 12.7803L13.7803 10.2803C14.0732 9.98744 14.0732 9.51256 13.7803 9.21967L11.2803 6.71967C10.9874 6.42678 10.5126 6.42678 10.2197 6.71967C9.92678 7.01256 9.92678 7.48744 10.2197 7.78033L11.4393 9H5V6.25C5 5.55964 5.55964 5 6.25 5H6.75V7C6.75 7.41421 7.08579 7.75 7.5 7.75C7.91421 7.75 8.25 7.41421 8.25 7V5H13.75C14.4404 5 15 5.55964 15 6.25V13.75C15 14.4404 14.4404 15 13.75 15H8.25V13C8.25 12.5858 7.91421 12.25 7.5 12.25C7.08579 12.25 6.75 12.5858 6.75 13V15H6.25C5.55964 15 5 14.4404 5 13.75V10.5Z" fill="#4A4A4A"/>
</svg>

<svg viewBox="0 0 20 20" xmlns="http://www.w3.org/2000/svg"><path fill-rule="evenodd" d="M6.25 3.5a2.75 2.75 0 0 0-2.75 2.75v7.5a2.75 2.75 0 0 0 2.75 2.75h7.5a2.75 2.75 0 0 0 2.75-2.75v-7.5a2.75 2.75 0 0 0-2.75-2.75h-7.5Zm-1.25 7h6.44l-1.22 1.22a.75.75 0 1 0 1.06 1.06l2.5-2.5a.75.75 0 0 0 0-1.06l-2.5-2.5a.75.75 0 1 0-1.06 1.06l1.22 1.22h-6.44v-2.75c0-.69.56-1.25 1.25-1.25h.5v2a.75.75 0 0 0 1.5 0v-2h5.5c.69 0 1.25.56 1.25 1.25v7.5c0 .69-.56 1.25-1.25 1.25h-5.5v-2a.75.75 0 0 0-1.5 0v2h-.5c-.69 0-1.25-.56-1.25-1.25v-3.25Z" fill="#5C5F62"/></svg>
